public/svg/colorPallate.svg

<svg xmlns="http://www.w3.org/2000/svg" width="56" height="56" viewBox="0 0 56 56" fill="none">
<path d="M28 49C25.2422 49 22.5115 48.4568 19.9636 47.4015C17.4158 46.3461 15.1008 44.7993 13.1508 42.8492C11.2007 40.8992 9.65388 38.5842 8.59853 36.0364C7.54318 33.4885 7 30.7578 7 28C7 25.2422 7.54318 22.5115 8.59853 19.9636C9.65388 17.4158 11.2007 15.1008 13.1508 13.1508C15.1008 11.2007 17.4158 9.65388 19.9636 8.59853C22.5115 7.54318 25.2422 7 28 7C33.5695 7 38.911 8.96666 42.8492 12.4673C46.7875 15.968 49 20.716 49 25.6667C49 28.142 47.8937 30.516 45.9246 32.2663C43.9555 34.0167 41.2848 35 38.5 35H32.6667C31.6257 34.9832 30.609 35.315 29.7783 35.9427C28.9476 36.5703 28.3506 37.4577 28.0824 38.4636C27.8141 39.4696 27.89 40.5364 28.2978 41.4943C28.7057 42.4522 29.4222 43.2462 30.3333 43.75C30.7992 44.1799 31.1187 44.7449 31.2469 45.3657C31.3751 45.9866 31.3056 46.6319 31.0482 47.2112C30.7907 47.7905 30.3582 48.2746 29.8115 48.5954C29.2648 48.9162 28.6313 49.0577 28 49Z" stroke="#1B5BF7" stroke-width="3.5" stroke-linecap="round" stroke-linejoin="round"/>
<path d="M17.4997 25.6666C18.144 25.6666 18.6663 25.1443 18.6663 24.4999C18.6663 23.8556 18.144 23.3333 17.4997 23.3333C16.8553 23.3333 16.333 23.8556 16.333 24.4999C16.333 25.1443 16.8553 25.6666 17.4997 25.6666Z" fill="#1B5BF7" stroke="#1B5BF7" stroke-width="3.5" stroke-linecap="round" stroke-linejoin="round"/>
<path d="M27.9997 18.6666C28.644 18.6666 29.1663 18.1443 29.1663 17.4999C29.1663 16.8556 28.644 16.3333 27.9997 16.3333C27.3553 16.3333 26.833 16.8556 26.833 17.4999C26.833 18.1443 27.3553 18.6666 27.9997 18.6666Z" fill="#1B5BF7" stroke="#1B5BF7" stroke-width="3.5" stroke-linecap="round" stroke-linejoin="round"/>
<path d="M38.4997 25.6666C39.144 25.6666 39.6663 25.1443 39.6663 24.4999C39.6663 23.8556 39.144 23.3333 38.4997 23.3333C37.8553 23.3333 37.333 23.8556 37.333 24.4999C37.333 25.1443 37.8553 25.6666 38.4997 25.6666Z" fill="#1B5BF7" stroke="#1B5BF7" stroke-width="3.5" stroke-linecap="round" stroke-linejoin="round"/>
</svg>

<svg xmlns="http://www.w3.org/2000/svg" width="56" height="56" fill="none" xmlns:v="https://vecta.io/nano"><g stroke="#1b5bf7" stroke-width="3.5" stroke-linejoin="round"><path d="M28 49a21 21 0 0 1-14.849-6.151A21 21 0 0 1 7 28a21 21 0 0 1 6.151-14.849A21 21 0 0 1 28 7c5.569 0 10.911 1.967 14.849 5.467S49 20.716 49 25.667c0 2.475-1.106 4.849-3.075 6.6S41.285 35 38.5 35h-5.833c-1.041-.017-2.058.315-2.888.943s-1.428 1.515-1.696 2.521-.192 2.073.215 3.031 1.124 1.752 2.036 2.256c.466.43.785.995.914 1.616s.059 1.266-.199 1.846-.69 1.063-1.237 1.384-1.18.462-1.811.405z"/><g fill="#1b5bf7"><use href="#B"/><use href="#B" x="10.5" y="-7"/><use href="#B" x="21"/></g></g><defs ><path id="B" d="M17.5 25.667c.644 0 1.167-.522 1.167-1.167s-.522-1.167-1.167-1.167-1.167.522-1.167 1.167.522 1.167 1.167 1.167z"/></defs></svg>
